X: 3281
T: Belfast, The
R: hornpipe
M: 4/4
K: Dmajor
|:ag|(3fga df AdFA|DFAd (3fgf ef|gbec eBAF|GA (3BAG E2 ag|
(3fga df AdFA|DFAd (3fgf ef|gfed cABc|1 df (3edc d2:|2 df (3edc d3 B||
GFGA (3BAG Bd|f2 fe dcdB|ADFA dffd|GFGB e3 d|
GFGA (3BAG Bd|f2 fe dcdB|Afed cABc|d2 AF E D2 A|
GFGA (3BAG Bd|f2 fe dcdB|ADFA dffd|gfed c3 A|
GFGA (3BAG Bd|f2 fe dcdB|Afed cABc|df (3edc d2|
|:ag|(3fga ea decd|BcAB G2 ba|(3gag fg efde|(3cBA ce a2 ag|
(3fga ea decd|BcAB GAFG|1 Eeed (3cBA Bc|df (3edc d2:|
[3"^ " E2 ed (3cBA Bc|dA (3FGA BAcA|dA (3FGA BAFE|D4- D2||

